X:1
T:Brimfield
L:1/4
Q:1/4=100
M:4/4
I:linebreak $
K:G
V:1 treble 
V:1
 D G/G/ D G/G/ | F E F E | D G/G/ D G/G/ | F G A2 | D G/G/ D G/G/ | F E F E | D2 B3/2 A/ | %7
 G F G A |]$ B3/2 A/ G B | c2 A2 | B3/2 A/ G B | A F D2 | B3/2 A/ G B | c2 A c | B G A F | %15
 G G/G/ G2 |] %16
